symbols/web/file_present/materialsymbolssharp/file_present_wght300grad200_20px.svg

<svg xmlns="http://www.w3.org/2000/svg" height="20" width="20"><path d="M16.875 18.583H3.125V1.417h9.458l4.292 4.291ZM15 16.708V6.646h-3.354V3.292H5v13.416ZM5 3.292v3.354-3.354 13.416Zm5 12.083q1.292 0 2.24-.958.948-.959.948-2.292V9.042h-1.334v3.083q0 .792-.552 1.354-.552.563-1.323.563-.75 0-1.291-.563-.542-.562-.542-1.354V7.938q0-.25.166-.438.167-.188.417-.188.271 0 .438.188.166.188.166.438v4.187h1.334V7.938q0-.792-.552-1.375-.553-.584-1.365-.584-.812 0-1.375.584-.563.583-.563 1.375v4.187q0 1.333.928 2.292.927.958 2.26.958Z"/></svg>

<svg xmlns="http://www.w3.org/2000/svg" height="20" width="20"><path d="M16.875 18.583H3.125V1.417H12.583L16.875 5.708ZM15 16.708V6.646H11.646V3.292H5V16.708ZM10 15.375Q11.292 15.375 12.24 14.417Q13.188 13.458 13.188 12.125V9.042H11.854V12.125Q11.854 12.917 11.302 13.479Q10.75 14.042 9.979 14.042Q9.229 14.042 8.688 13.479Q8.146 12.917 8.146 12.125V7.938Q8.146 7.688 8.312 7.5Q8.479 7.312 8.729 7.312Q9 7.312 9.167 7.5Q9.333 7.688 9.333 7.938V12.125H10.667V7.938Q10.667 7.146 10.115 6.563Q9.562 5.979 8.75 5.979Q7.938 5.979 7.375 6.563Q6.812 7.146 6.812 7.938V12.125Q6.812 13.458 7.74 14.417Q8.667 15.375 10 15.375ZM5 3.292V6.646V3.292V6.646V16.708Z"/></svg>
